X: 33719
T: Raspberry Bush, The
R: jig
M: 6/8
K: Dmajor
AGF AAG|AGF d2 B|AGF AAG|E2 d cBB|
AGF AAG|AGF d2 f|gfe dcA|1 dec d2 A:|2 dec d2 B||
|:dcA dcG|dcA dcG|dfe dfa|gfg e2 c|
edB ecA|edB ecA|a2 g fdB|1 e2 d cBA:|2 Adc d3||

